X: 060899
T: Frank McCollum's
S: "First Collection of Traditional Irish Music" (M.Mulvihill)
C: F.McCollum
Z: B.Black
L: 1/8
M: 6/8
R: jig
K: D
DE|F2 F AFE|DFA B2 A|dBA BAF|DEF EDE|
F2 F AFE|DFA B2 A|dfe dBA|FED D2 :|
d/e/|faf edB|dBA BAF|ABd ede|fed e2 d|
f2 f edB|dBA def|edB AFE|FDD D2 :|
